X:19
T:Christmas Day ida Moarnin
M:6/8
L:1/8
C:Trad.
S:Shetland
R:Slow Jig
K:D
[|\
"D"f2d f3 | "A"e2d c2A | "G"B2c d2c | "G"BG2 G3 |\
"Em"e2fg2f | "A"e2dc2B | "A"ABA A Bc | "D"d3 d3 ||
||\
"D"fa2 a3 | "A"e2dc2A | "G"B2c d2c | "G"BG2 G3 |\
"Em"e2fg2f | "A"e2dc2B | "A"ABA ABc | "D"d3 d3 |]
|:\
"Em"e3 (4edef | "Em"g3 B3 | "Am"ABA A2A | "G"B2c dcB |\
"C"e3 (4edef | "Em"g3 B3 | "Am"A2e "G"d2B | "Am"A3 A3 :|
